X:318
T:Aughtaboy
O:england
R:jig
C:Ed Reavy
M:6/8
L:1/8
N:The village the Morleys came from Delia (Brigid),
N:Ed's wife, was born there February 18, 1902. The old
N:house still stands after these many years, though no
N:one now lives there. Four of the eight children are
N:still living: Delia and Margaret here in the States,
N:and Jim and Eileen in England.
K:G
D|GAG BGB|d^cd gdB|GFG BAG|FDF AGF|GDB, G,B,D|
DAF FEF|BdB cAF|AGF G2:||A|Bdg fdf|ece dBG|Bdg fdf|
agf g2 A|Bdg fdf|ece dBG|c/2c/2AG FEF|AGF G2 A||
Bdg fdf|ece dBG|Bdg fdf|agf g2 a|bag faf|gdc BAF|
GBB FAA|cAF G2||


